X:10
T:The Humours Of Scarriff
R:Reel
S:Paddy Canny, Clare (fiddle)
D:Home tape of unknown provenance
M:4/4
N:As played
Z:Bernie Stocks
K:C
|: ~d3e f2ed | cAGF (3.A.B.c Gc | Adde ^faed | cAGE {G}ED+D2A,2+ :|
(3.e.e.c gc acgc | ecgc abag | ecgc acgc | edcd edd2 |
(3.e.e.c gc acgc | ecgc ~a3-a | abag (3efg dB | {d}cAGE {G}ED+D2A,2+ ||
<end>
<start>
